X:1
T: Miss Crawford's Strathspey
C:
R:Strathspey
Q: 128
K:A
M:4/4
L:1/16
|:E2|AA3 c3A e3c ea3|AA3 c3A dcBA GB3|AA3 c3A e3c ea3|((3f2e2d2) ((3c2B2A2) ((3G2B2A2) ((3G2F2E2) |
AA3 c3A e3c ea3|AA3 c3A dcBA GB3|AA3 c3A e3c ea3|((3f2g2a2) ((3b2g2e2) a4 a2e2|
a2A2 c'2A2 e'2A2 c'2A2|a2A2 c'2A2 b3a ac'3|a2A2 c'2A2 e'2A2 c'2A2|((3d2e2f2) ((3e2d2B2) c2A2 A2e2|
a2A2 c'2A2 e'2A2 c'2A2|a2A2 c'2A2 b3a ac'3|((3A2c2e2) ((3e2c2A2) ((3d2e2f2) ((3f2d2B2) |((3c2d2e2) ((3f2b2g2) a4 a2:|
